X: 42070
T: Waltz Of The Little Girls, The
R: waltz
M: 3/4
K: Gmajor
|:g>f ed|B2- BA GA|B2 gf ed|B2- BA GB|c2 cB B/c/d|
e2 ed cB|A2- AB cd|1 e^d e=d ef|ed:|2 e2 f2 d/e/f|g2 GB dg||
|:f2- fe dB|GB eB dB|AB dg Af|g2 GB dg|
fg fe d^c|ed Bd Gd|1 Ad FA (3def|g2- gB dg:|2 Ad Fd Dd|G2||


